T: Preston's
M: 4/4
L: 1/8
K: Gmaj
|: GABA G2 G2  | FGAG FDDF |  GB B2 Bcdg |[1 fgaf geBA :|[2 fgaf   g3 d |||: gb b/b/b fgaf | gedg geea |
